public/icons/shield.svg

<svg width="56" height="56" viewBox="0 0 56 56" fill="none" xmlns="http://www.w3.org/2000/svg">
<path d="M28 2.7998L46.536 9.2398C47.656 9.6318 48.44 10.6958 48.44 11.9278V31.7518C48.44 45.5838 28 53.1998 28 53.1998C28 53.1998 7.56 45.5838 7.56 31.8078V11.9838C7.56 10.7518 8.344 9.6878 9.464 9.2958L28 2.7998Z" stroke="#333333" stroke-linecap="round" stroke-linejoin="round"/>
<path d="M28 40.824C35.6083 40.824 41.776 34.6562 41.776 27.048C41.776 19.4397 35.6083 13.272 28 13.272C20.3917 13.272 14.224 19.4397 14.224 27.048C14.224 34.6562 20.3917 40.824 28 40.824Z" stroke="#333333" stroke-linecap="round" stroke-linejoin="round"/>
<path d="M33.208 22.2881C33.208 19.3761 30.856 17.0801 28 17.0801C25.088 17.0801 22.792 19.4321 22.792 22.2881V24.6401H25.648V22.2881C25.648 21.0001 26.712 19.9361 28 19.9361C29.288 19.9361 30.352 21.0001 30.352 22.2881V24.6401H33.208V22.2881Z" stroke="#333333" stroke-linecap="round" stroke-linejoin="round"/>
<path d="M22.792 24.6958H33.264C33.768 24.6958 34.216 25.1438 34.216 25.6478V35.1678C34.216 35.6718 33.768 36.1198 33.264 36.1198H22.792C22.288 36.1198 21.84 35.6718 21.84 35.1678V25.6478C21.84 25.0878 22.232 24.6958 22.792 24.6958Z" stroke="#333333" stroke-linecap="round" stroke-linejoin="round"/>
<path d="M29.4 29.9042C29.4 29.1202 28.784 28.4482 28 28.4482C27.216 28.4482 26.544 29.0642 26.544 29.8482C26.544 30.2402 26.712 30.6322 26.992 30.9122V32.2562C26.992 32.7602 27.44 33.2082 27.944 33.2082C28.448 33.2082 28.896 32.7602 28.896 32.2562V30.9122C29.232 30.6882 29.4 30.2962 29.4 29.9042Z" stroke="#333333" stroke-linecap="round" stroke-linejoin="round"/>
</svg>

<?xml version="1.0" encoding="utf-8"?>
<!-- Generator: Adobe Illustrator 25.4.1, SVG Export Plug-In . SVG Version: 6.00 Build 0)  -->
<svg version="1.1" id="Layer_1" xmlns="http://www.w3.org/2000/svg" xmlns:xlink="http://www.w3.org/1999/xlink" x="0px" y="0px"
	 viewBox="0 0 56 56" style="enable-background:new 0 0 56 56;" xml:space="preserve">
<style type="text/css">
	.st0{fill:#333333;stroke:#333333;stroke-linecap:round;stroke-linejoin:round;}
	.st1{fill:#FFFFFF;stroke:#333333;stroke-linecap:round;stroke-linejoin:round;}
	.st2{fill:#FFFFFF;stroke:#FFFFFF;stroke-linecap:round;stroke-linejoin:round;}
</style>
<path class="st0" d="M28,2.8l18.5,6.4c1.1,0.4,1.9,1.5,1.9,2.7v19.8C48.4,45.6,28,53.2,28,53.2S7.6,45.6,7.6,31.8V12
	c0-1.2,0.8-2.3,1.9-2.7L28,2.8z"/>
<path class="st1" d="M28,40.8c7.6,0,13.8-6.2,13.8-13.8c0-7.6-6.2-13.8-13.8-13.8S14.2,19.4,14.2,27C14.2,34.7,20.4,40.8,28,40.8z"
	/>
<path class="st0" d="M33.2,22.3c0-2.9-2.4-5.2-5.2-5.2c-2.9,0-5.2,2.4-5.2,5.2v2.4h2.9v-2.4c0-1.3,1.1-2.4,2.4-2.4s2.4,1.1,2.4,2.4
	v2.4h2.9V22.3z"/>
<path class="st0" d="M22.8,24.7h10.5c0.5,0,1,0.4,1,1v9.5c0,0.5-0.4,1-1,1H22.8c-0.5,0-1-0.4-1-1v-9.5
	C21.8,25.1,22.2,24.7,22.8,24.7z"/>
<path class="st2" d="M29.4,29.9c0-0.8-0.6-1.5-1.4-1.5s-1.5,0.6-1.5,1.4c0,0.4,0.2,0.8,0.4,1.1v1.3c0,0.5,0.4,1,1,1s1-0.4,1-1v-1.3
	C29.2,30.7,29.4,30.3,29.4,29.9z"/>
</svg>
